assets/img/icons/duotone-icons/Layout/Layout-top-panel-1.svg

<?xml version="1.0" encoding="UTF-8"?>
<svg width="24px" height="24px" viewBox="0 0 24 24" version="1.1" xmlns="http://www.w3.org/2000/svg" xmlns:xlink="http://www.w3.org/1999/xlink">
    <!-- Generator: Sketch 52.2 (67145) - http://www.bohemiancoding.com/sketch -->
    <title>Stockholm-icons / Layout / Layout-top-panel-1</title>
    <desc>Created with Sketch.</desc>
    <g id="Stockholm-icons-/-Layout-/-Layout-top-panel-1" stroke="none" stroke-width="1" fill="none" fill-rule="evenodd">
        <rect id="bound" x="0" y="0" width="24" height="24"></rect>
        <rect id="Rectangle-7-Copy" fill="#335EEA" x="2" y="4" width="19" height="4" rx="1"></rect>
        <path d="M3,10 L6,10 C6.55228475,10 7,10.4477153 7,11 L7,19 C7,19.5522847 6.55228475,20 6,20 L3,20 C2.44771525,20 2,19.5522847 2,19 L2,11 C2,10.4477153 2.44771525,10 3,10 Z M10,10 L13,10 C13.5522847,10 14,10.4477153 14,11 L14,19 C14,19.5522847 13.5522847,20 13,20 L10,20 C9.44771525,20 9,19.5522847 9,19 L9,11 C9,10.4477153 9.44771525,10 10,10 Z M17,10 L20,10 C20.5522847,10 21,10.4477153 21,11 L21,19 C21,19.5522847 20.5522847,20 20,20 L17,20 C16.4477153,20 16,19.5522847 16,19 L16,11 C16,10.4477153 16.4477153,10 17,10 Z" id="Combined-Shape" fill="#335EEA" opacity="0.3"></path>
    </g>
</svg>

<svg width="24" height="24" viewBox="0 0 24 24" xmlns="http://www.w3.org/2000/svg"><g fill="none" fill-rule="evenodd"><path d="M0 0h24v24H0z"/><rect fill="#335EEA" x="2" y="4" width="19" height="4" rx="1"/><path d="M3 10h3a1 1 0 011 1v8a1 1 0 01-1 1H3a1 1 0 01-1-1v-8a1 1 0 011-1zm7 0h3a1 1 0 011 1v8a1 1 0 01-1 1h-3a1 1 0 01-1-1v-8a1 1 0 011-1zm7 0h3a1 1 0 011 1v8a1 1 0 01-1 1h-3a1 1 0 01-1-1v-8a1 1 0 011-1z" fill="#335EEA" opacity=".3"/></g></svg>
